X: 3
T: Ruffs and Rhees   [C]
O: 1779
R: jig
S: Image from Darlene Wigton, June 2017
Z: 2017 John Chambers <jc:trillian.mit.edu>
M: 6/8
L: 1/8
K: C
% - - - - - - - - - - - - - - - - - - - - - - - - - - - - -
V: 1 brace=2 staves=2	% Formatted for proofreading on my screen.
|:\
"C"c2g "(Am)"ece | "Dm"fdc "G7"B2G |\
"C"c2g "(Am)"ece | "G7"BGB "C"c3 :|
|:\
"C"E2F "(G7)"GAB | "C"cGF E2C |\
"C"E2F "(G7)"GAB | "C"cge "G7"d3 :|
|:\
"C"g2e "F"(f/g/a)f | "Dm"fdf "C"g2e |\
"C(Am)"e2c "F(Dm)"(d/e/f)d | "G7"BGB "C"c3 :| [a2C2]
% - - - - - - - - - - - - - - - - - - - - - - - - - - - - -
V: 2 clef=bass middle=d	% Preserves the book's staff layout
|:\
c3 c3 | d3 g2f | e3 c3 | g2G c3 :||: c3 c3 | cgf e2c |
c3 c3 | cec g3 :||: c3 f3 | d3 e3 | c2e f3 | g2G c3 :| [g2G2]
% - - - - - - - - - - - - - - - - - - - - - - - - - - - - -
%%begintext align
%%   Change sides .|
%% back again :|
%% lead down two Cu. :|.
%% up again and cast off :|.
%% Le Pressett or the first and second Cu.
%% move intirely round each other till they
%% arrive at proper places .||.
%%endtext

%%sep 1 1 500

